X:3221
T:Colonel Ridley's Quickstep
M:6/8
L:1/8
Q:180
K:A
e/d/|:c2 AAB|cBG EE2|dcA ced|cB2 BBe|dc2 AAB|cBG EE2|dc/d/e cdB|GA2 AA2|e/d/:|
W: A E A E A E A E A
|:cd eed|cde ffe|dcA ced|cB2 BBe|dcd eed|cde ffg|aec edB|GA2 AA2|e/d/:|
W: A D A E A D A E A


